Newaita/actions/24/go-top.svg

<svg height="24" viewBox="0 0 24 24" width="24" xmlns="http://www.w3.org/2000/svg"><g fill="#424242"><path d="m12.898438 19.039062v-8.929687c0-.546875-.441407-.992187-.992188-.992187-.546875 0-.992188.445312-.992188.992187v8.929687c0 .550782.445313.996094.992188.996094.550781 0 .992188-.445312.992188-.996094zm0 0"/><path d="m5.59375 17.828125 7.015625-7.015625c.386719-.386719.386719-1.015625 0-1.402344-.386719-.390625-1.015625-.390625-1.40625 0l-7.015625 7.015625c-.386719.386719-.386719 1.015625 0 1.402344s1.015625.386719 1.40625 0zm0 0"/><path d="m19.625 16.425781-7.015625-7.015625c-.386719-.390625-1.015625-.390625-1.402344 0-.386719.386719-.386719 1.015625 0 1.402344l7.015625 7.015625c.386719.386719 1.015625.386719 1.402344 0s.386719-1.015625 0-1.402344zm0 0"/><path d="m13.890625 6.140625c0-1.09375-.886719-1.984375-1.984375-1.984375-1.09375 0-1.984375.890625-1.984375 1.984375 0 1.097656.890625 1.984375 1.984375 1.984375 1.097656 0 1.984375-.886719 1.984375-1.984375zm0 0"/></g></svg>

<svg xmlns="http://www.w3.org/2000/svg" xmlns:xlink="http://www.w3.org/1999/xlink" width="24px" height="24px" viewBox="0 0 24 24" version="1.1">
<g id="surface1">
     <defs>
  <style id="current-color-scheme" type="text/css">
   .ColorScheme-Text { color:#424242; } .ColorScheme-Highlight { color:#eeeeee; }
  </style>
 </defs>
<path style="fill:currentColor" class="ColorScheme-Text" d="M 12.898438 19.039062 L 12.898438 10.109375 C 12.898438 9.5625 12.457031 9.117188 11.90625 9.117188 C 11.359375 9.117188 10.914062 9.5625 10.914062 10.109375 L 10.914062 19.039062 C 10.914062 19.589844 11.359375 20.035156 11.90625 20.035156 C 12.457031 20.035156 12.898438 19.589844 12.898438 19.039062 Z M 12.898438 19.039062 "/>
     <defs>
  <style id="current-color-scheme" type="text/css">
   .ColorScheme-Text { color:#424242; } .ColorScheme-Highlight { color:#eeeeee; }
  </style>
 </defs>
<path style="fill:currentColor" class="ColorScheme-Text" d="M 5.59375 17.828125 L 12.609375 10.8125 C 12.996094 10.425781 12.996094 9.796875 12.609375 9.410156 C 12.222656 9.019531 11.59375 9.019531 11.203125 9.410156 L 4.1875 16.425781 C 3.800781 16.8125 3.800781 17.441406 4.1875 17.828125 C 4.574219 18.214844 5.203125 18.214844 5.59375 17.828125 Z M 5.59375 17.828125 "/>
     <defs>
  <style id="current-color-scheme" type="text/css">
   .ColorScheme-Text { color:#424242; } .ColorScheme-Highlight { color:#eeeeee; }
  </style>
 </defs>
<path style="fill:currentColor" class="ColorScheme-Text" d="M 19.625 16.425781 L 12.609375 9.410156 C 12.222656 9.019531 11.59375 9.019531 11.207031 9.410156 C 10.820312 9.796875 10.820312 10.425781 11.207031 10.8125 L 18.222656 17.828125 C 18.609375 18.214844 19.238281 18.214844 19.625 17.828125 C 20.011719 17.441406 20.011719 16.8125 19.625 16.425781 Z M 19.625 16.425781 "/>
     <defs>
  <style id="current-color-scheme" type="text/css">
   .ColorScheme-Text { color:#424242; } .ColorScheme-Highlight { color:#eeeeee; }
  </style>
 </defs>
<path style="fill:currentColor" class="ColorScheme-Text" d="M 13.890625 6.140625 C 13.890625 5.046875 13.003906 4.15625 11.90625 4.15625 C 10.8125 4.15625 9.921875 5.046875 9.921875 6.140625 C 9.921875 7.238281 10.8125 8.125 11.90625 8.125 C 13.003906 8.125 13.890625 7.238281 13.890625 6.140625 Z M 13.890625 6.140625 "/>
</g>
</svg>
